THRILL.cube
TITLE "Generated by Resolve"
LUT_3D_SIZE 9
0.0184634 0.044358 0.0542611
0.0338903 0.0510567 0.0572671
0.0771801 0.0639811 0.0597391
0.170916 0.0754711 0.0583047
0.314199 0.0873426 0.0664988
0.475181 0.0939803 0.098024
0.607126 0.101839 0.127794
0.726726 0.112993 0.153048
0.835248 0.130556 0.172351
0.018555 0.0814069 0.0547189
0.036286 0.0819104 0.0567178
0.0812238 0.0912947 0.0583505
0.188602 0.0954604 0.057023
0.338933 0.106584 0.0733654
0.504891 0.116869 0.106386
0.642969 0.128695 0.136355
0.765988 0.145052 0.159213
0.860945 0.167452 0.177111
0.0175174 0.145052 0.0511482
0.0350805 0.156817 0.0486
0.0932631 0.144976 0.051957
0.231022 0.152941 0.0388342
0.406439 0.16817 0.0632639
0.579263 0.180636 0.0995499
0.721981 0.201083 0.122454
0.830243 0.225483 0.138979
0.888884 0.251148 0.151293
0.016556 0.232563 0.0442359
0.0320897 0.254917 0.033814
0.102068 0.251301 0.0639963
0.268437 0.229068 0.0362249
0.506615 0.236469 0.0611734
0.677607 0.260655 0.0850385
0.798474 0.288701 0.0962081
0.874525 0.325978 0.0953536
0.905852 0.365209 0.0839704
0.0178225 0.329122 0.0423743
0.0362249 0.349035 0.0330816
0.123888 0.368963 0.0431373
0.304021 0.380682 0.0361486
0.564111 0.336431 0.0280461
0.74313 0.345708 0.0512398
0.844984 0.375189 0.0593271
0.895094 0.416922 0.0488594
0.910002 0.451713 0.0371252
0.0198825 0.422263 0.0474098
0.0572366 0.447944 0.0334173
0.164477 0.469169 0.0466163
0.359136 0.500343 0.0361791
0.575708 0.513878 0.0366217
0.767208 0.477623 0.0266728
0.856977 0.477104 0.0269474
0.895079 0.502846 0.0280766
0.902953 0.521401 0.0305333
0.0286259 0.524559 0.0451667
0.0853742 0.545892 0.0486915
0.21912 0.558022 0.0693828
0.406973 0.599054 0.0419318
0.591287 0.642252 0.0404822
0.745235 0.642145 0.0397955
0.844144 0.60647 0.0355383
0.88394 0.58822 0.0289921
0.89189 0.588098 0.0306249
0.0588693 0.588937 0.0857099
0.123369 0.614908 0.0839704
0.268894 0.643519 0.0791638
0.446448 0.684077 0.0441291
0.614801 0.726467 0.0431678
0.725261 0.761227 0.0424964
0.811627 0.746487 0.0423133
0.859632 0.697948 0.0444343
0.872969 0.669841 0.041413
0.0566567 0.723735 0.0469368
0.122988 0.743847 0.0475776
0.262348 0.771374 0.0464942
0.447517 0.804791 0.0454261
0.599481 0.818769 0.0444648
0.714427 0.83238 0.0441596
0.781979 0.854292 0.0437476
0.829847 0.827497 0.0437171
0.845609 0.786084 0.0440833
0.0183871 0.052491 0.0831006
0.0367437 0.0553597 0.0886244
0.0792401 0.0593576 0.0853132
0.168627 0.0735637 0.0783398
0.31191 0.0858778 0.0869764
0.47332 0.0937667 0.117739
0.604746 0.102373 0.146944
0.724315 0.113802 0.172885
0.832715 0.131579 0.192111
0.0184634 0.0822614 0.0894331
0.0364233 0.0842298 0.0912184
0.0813764 0.0958114 0.0909133
0.188388 0.103288 0.0795758
0.343008 0.112902 0.0889754
0.507424 0.119814 0.12491
0.644404 0.130495 0.156146
0.766781 0.14667 0.179889
0.8589 0.168978 0.197299
0.0175937 0.146883 0.0769665
0.0349889 0.159197 0.0848554
0.0951858 0.149844 0.0841382
0.231098 0.158694 0.0654307
0.411597 0.170962 0.0833906
0.582498 0.182483 0.119936
0.721843 0.201526 0.143206
0.826841 0.22414 0.16022
0.88513 0.248859 0.173037
0.0169985 0.233982 0.0649729
0.0318608 0.257893 0.0619516
0.104189 0.257618 0.0881666
0.285054 0.234119 0.0545205
0.513405 0.24239 0.0782635
0.677897 0.266194 0.100267
0.796506 0.294789 0.110063
0.871778 0.332189 0.108217
0.903593 0.371145 0.0961013
0.0183719 0.332143 0.0636759
0.0353094 0.353429 0.0541085
0.12549 0.374487 0.0658427
0.310643 0.386404 0.0551003
0.581857 0.344335 0.0457465
0.756603 0.353536 0.0683604
0.847745 0.383688 0.0721904
0.893706 0.424765 0.059617
0.907958 0.457801 0.0531167
0.0203708 0.425391 0.0701762
0.0554818 0.45452 0.0510719
0.165164 0.474022 0.0705882
0.365179 0.506661 0.0539406
0.580789 0.520974 0.0538949
0.772656 0.486564 0.0440681
0.858244 0.484764 0.0442817
0.893858 0.510079 0.0449683
0.901045 0.526635 0.045243
0.0286259 0.527367 0.0749371
0.0826581 0.547936 0.0714427
0.217411 0.561212 0.094316
0.410452 0.603891 0.0627146
0.593362 0.647044 0.0572671
0.745373 0.646845 0.0563516
0.843565 0.611795 0.0526894
0.882475 0.592844 0.0453956
0.890471 0.590646 0.0442054
0.0563516 0.59057 0.114015
0.118807 0.617365 0.105455
0.264332 0.640772 0.107179
0.446464 0.68809 0.064683
0.615579 0.730938 0.0592813
0.723888 0.762005 0.0585794
0.810681 0.747295 0.0581521
0.858045 0.701579 0.0606851
0.871809 0.67129 0.0548562
0.0469368 0.735271 0.0638895
0.118349 0.74786 0.0632181
0.257404 0.763607 0.0614176
0.444877 0.80351 0.0593729
0.599405 0.821378 0.057847
0.713954 0.833005 0.0576333
0.780728 0.853346 0.0576333
0.82916 0.828305 0.0571298
0.844541 0.787869 0.0559701
0.0181735 0.0709392 0.133562
0.0345769 0.0714122 0.135271
0.0891585 0.075639 0.139681
0.182269 0.0751354 0.12874
0.320211 0.076173 0.130617
0.470985 0.0880293 0.157229
0.600153 0.100923 0.183215
0.719585 0.114336 0.205524
0.825071 0.13077 0.224887
0.0182803 0.0919203 0.134707
0.0360418 0.0981765 0.141756
0.0921492 0.102647 0.145678
0.200305 0.095964 0.129702
0.351598 0.100526 0.136263
0.508736 0.114153 0.166567
0.643015 0.129183 0.193362
0.761425 0.145159 0.21619
0.850553 0.164736 0.233845
0.0175479 0.147753 0.14966
0.0344854 0.158709 0.155993
0.0918898 0.163607 0.159548
0.228138 0.16936 0.135271
0.424079 0.165057 0.129839
0.579599 0.17116 0.161822
0.712459 0.188602 0.185153
0.817365 0.211917 0.201022
0.878233 0.239628 0.21059
0.0173342 0.245899 0.131533
0.0315557 0.253391 0.125185
0.0956283 0.27747 0.132357
0.281834 0.247532 0.112734
0.503838 0.255116 0.0945144
0.662364 0.27631 0.115648
0.779889 0.301564 0.127535
0.862013 0.33637 0.128511
0.899702 0.37464 0.119966
0.0187839 0.333898 0.108354
0.0331731 0.350057 0.118379
0.115389 0.390753 0.108248
0.313954 0.39942 0.102251
0.577676 0.357534 0.0710155
0.751919 0.364721 0.0836347
0.841459 0.396612 0.0846113
0.888548 0.438102 0.0805829
0.904036 0.470375 0.0784772
0.0206912 0.414923 0.128054
0.0391394 0.460578 0.105669
0.15404 0.485344 0.115084
0.36437 0.516762 0.099733
0.579446 0.535164 0.0801404
0.76791 0.49781 0.0711223
0.853971 0.492729 0.0706645
0.889723 0.518288 0.0710002
0.897322 0.538689 0.0700847
0.0249485 0.492271 0.163149
0.0653391 0.547784 0.128695
0.204242 0.567697 0.140169
0.404791 0.608286 0.132296
0.594141 0.654749 0.0830091
0.742336 0.652781 0.0818952
0.83949 0.614389 0.0783856
0.879881 0.596017 0.0706645
0.887617 0.596719 0.0687724
0.0363928 0.578058 0.193378
0.0954147 0.621958 0.155703
0.249378 0.641779 0.155566
0.437888 0.688029 0.134936
0.61178 0.736568 0.0846876
0.720882 0.762722 0.083772
0.809018 0.746136 0.0832532
0.856458 0.701091 0.0852979
0.869612 0.674189 0.0791638
0.0317998 0.726162 0.139803
0.0907149 0.770794 0.0895094
0.242939 0.770718 0.0871443
0.434195 0.797589 0.0835431
0.595544 0.824765 0.0816968
0.711818 0.834272 0.0817426
0.778531 0.851637 0.0819409
0.82797 0.828153 0.0814069
0.842466 0.790814 0.0800031
0.0176852 0.0997177 0.207111
0.0334783 0.0990158 0.206348
0.080293 0.100633 0.218845
0.204669 0.10277 0.20235
0.366995 0.1019 0.200107
0.526146 0.102434 0.204334
0.637644 0.112078 0.218433
0.741375 0.12462 0.236286
0.829984 0.140566 0.252552
0.0177615 0.119997 0.209308
0.0341192 0.124575 0.214618
0.0864576 0.125856 0.226444
0.223224 0.128222 0.208774
0.40415 0.127214 0.210224
0.568521 0.130465 0.217456
0.686473 0.142687 0.232517
0.782773 0.157763 0.248325
0.852796 0.177295 0.261051
0.0172885 0.15555 0.212238
0.0315862 0.170504 0.228214
0.0831159 0.183612 0.248554
0.246876 0.185245 0.234913
0.45388 0.177005 0.232227
0.62501 0.180194 0.240696
0.741421 0.192477 0.252323
0.821958 0.20676 0.26041
0.868345 0.226093 0.264057
0.0172885 0.250568 0.243091
0.0315709 0.273075 0.26006
0.0652171 0.294377 0.272236
0.246494 0.291798 0.272312
0.467277 0.288533 0.256626
0.639216 0.286381 0.255329
0.761059 0.297826 0.262119
0.843992 0.323598 0.265049
0.8813 0.353338 0.260868
0.0187381 0.385016 0.269688
0.0330968 0.385885 0.256153
0.0623636 0.399542 0.226032
0.292103 0.421042 0.229938
0.548836 0.384695 0.202808
0.721599 0.395895 0.188815
0.816526 0.42768 0.194568
0.869383 0.464179 0.191836
0.889555 0.494041 0.188174
0.0206607 0.454414 0.259113
0.0351415 0.450248 0.246006
0.0972457 0.497841 0.203037
0.33344 0.526101 0.233112
0.559792 0.555398 0.178973
0.748165 0.514946 0.142245
0.840574 0.509651 0.124269
0.879072 0.536126 0.119631
0.890547 0.557565 0.117678
0.0247044 0.516838 0.289387
0.0395972 0.513146 0.27158
0.147295 0.578347 0.222324
0.377127 0.609384 0.246998
0.58294 0.663645 0.169329
0.732006 0.661051 0.122484
0.830137 0.618372 0.114015
0.874983 0.602396 0.104189
0.882063 0.612451 0.102525
0.0289464 0.563836 0.321706
0.0480812 0.582208 0.290257
0.190188 0.6551 0.233707
0.411078 0.682445 0.244907
0.591394 0.738048 0.207446
0.712245 0.763378 0.136477
0.805508 0.745113 0.116457
0.854612 0.698253 0.117342
0.866514 0.677653 0.112016
0.0310979 0.714717 0.271778
0.0445716 0.734691 0.234897
0.175051 0.819745 0.148638
0.410239 0.805127 0.167865
0.579675 0.824216 0.174502
0.702556 0.836851 0.152285
0.774014 0.850202 0.123232
0.826658 0.826139 0.113497
0.83975 0.791775 0.119768
0.0170901 0.135103 0.289937
0.0295262 0.13344 0.287816
0.0694743 0.130694 0.289998
0.199496 0.137636 0.290684
0.399329 0.134417 0.273823
0.560159 0.131151 0.277531
0.682841 0.140093 0.291936
0.773526 0.151995 0.304921
0.839933 0.162753 0.30811
0.0171664 0.154925 0.292241
0.0302129 0.156756 0.295079
0.0740673 0.155718 0.299229
0.223316 0.164736 0.297017
0.435386 0.159991 0.283238
0.599161 0.160464 0.291203
0.71928 0.174502 0.309407
0.800809 0.191409 0.325185
0.850706 0.207446 0.331518
0.0169985 0.18436 0.290028
0.0304875 0.198688 0.307408
0.0717174 0.213443 0.329046
0.251667 0.21976 0.326787
0.47631 0.213367 0.312245
0.640589 0.215656 0.32192
0.74931 0.232578 0.341024
0.819074 0.248936 0.354162
0.852674 0.27042 0.363882
0.0171817 0.251667 0.3131
0.0315099 0.276783 0.339376
0.0565652 0.300435 0.370413
0.238666 0.30663 0.385901
0.473182 0.307546 0.365805
0.640101 0.301274 0.367681
0.749783 0.309178 0.376974
0.822538 0.320317 0.382849
0.852583 0.342504 0.391989
0.0187228 0.375616 0.37026
0.0330968 0.40116 0.389151
0.0508583 0.434028 0.415335
0.19762 0.451194 0.413764
0.474189 0.446769 0.416312
0.648615 0.463783 0.424628
0.761044 0.477638 0.431266
0.829435 0.488334 0.425574
0.857679 0.4981 0.414893
0.0208438 0.527153 0.433097
0.0353094 0.542779 0.438331
0.0538338 0.52813 0.40647
0.231373 0.54612 0.363073
0.520806 0.577691 0.359472
0.704295 0.54725 0.361166
0.797482 0.556878 0.360433
0.844663 0.580468 0.360723
0.863554 0.597208 0.350912
0.0247807 0.618524 0.46949
0.0391546 0.603052 0.444709
0.067216 0.580652 0.404105
0.306676 0.62359 0.358892
0.548074 0.668254 0.362371
0.701045 0.677745 0.320729
0.803525 0.63827 0.320455
0.851347 0.632044 0.297963
0.862364 0.645426 0.29276
0.0287785 0.660899 0.476753
0.0426642 0.644572 0.44625
0.0859693 0.639887 0.401022
0.353262 0.696498 0.350881
0.558206 0.733074 0.37023
0.694789 0.77113 0.337987
0.788174 0.754391 0.266255
0.842435 0.706477 0.258564
0.852491 0.69836 0.277562
0.0305028 0.767834 0.436454
0.0437171 0.763531 0.408316
0.0690471 0.777035 0.331029
0.339147 0.828077 0.283925
0.550134 0.824094 0.328649
0.682292 0.840421 0.339818
0.760327 0.853788 0.319249
0.822721 0.825711 0.173205
0.827131 0.796048 0.305959
0.0164645 0.170474 0.371008
0.0273899 0.168978 0.368399
0.063447 0.162905 0.363241
0.174975 0.162356 0.377279
0.395102 0.172168 0.342626
0.590707 0.161028 0.333394
0.69398 0.164721 0.342992
0.776028 0.180484 0.356924
0.831891 0.201434 0.36968
0.0166323 0.190417 0.373724
0.0287327 0.191669 0.375631
0.0679332 0.1879 0.371923
0.200519 0.19118 0.383581
0.439933 0.197284 0.348379
0.628611 0.191409 0.346212
0.727855 0.200732 0.359625
0.800519 0.221775 0.376135
0.837491 0.249943 0.403159
0.0167544 0.220829 0.375021
0.030396 0.232807 0.390921
0.0646067 0.244587 0.406348
0.219226 0.242542 0.417594
0.486336 0.249271 0.375875
0.659281 0.246815 0.378195
0.751446 0.261692 0.395041
0.810742 0.284718 0.419425
0.830045 0.322103 0.465248
0.0172274 0.276814 0.388983
0.0315862 0.301228 0.416281
0.0514839 0.320943 0.444587
0.185153 0.327947 0.469718
0.485328 0.334997 0.43122
0.647272 0.331289 0.433295
0.744518 0.347768 0.455543
0.8047 0.367376 0.481254
0.826886 0.396628 0.507561
0.018616 0.366232 0.433646
0.0330205 0.396246 0.464775
0.050721 0.425849 0.501274
0.174609 0.446677 0.534432
0.464637 0.458854 0.523369
0.62649 0.471702 0.53492
0.733822 0.477012 0.54696
0.80145 0.474876 0.543603
0.827237 0.486458 0.546181
0.0206607 0.500572 0.504952
0.0351873 0.52784 0.525582
0.0531624 0.561395 0.554681
0.137575 0.591485 0.582818
0.458854 0.591257 0.55903
0.641825 0.599512 0.570581
0.746059 0.614801 0.579492
0.808377 0.619348 0.572641
0.835203 0.617426 0.554025
0.0248112 0.638926 0.584695
0.039292 0.664668 0.603357
0.0570687 0.679469 0.611627
0.159701 0.652308 0.563668
0.487877 0.666972 0.538537
0.665721 0.697322 0.51339
0.769985 0.672938 0.524941
0.819043 0.682338 0.51989
0.837201 0.693584 0.510506
0.028809 0.75198 0.664179
0.0426795 0.751461 0.652354
0.0598917 0.7187 0.59472
0.193851 0.701671 0.531136
0.513344 0.734493 0.51223
0.672816 0.773861 0.513146
0.761822 0.771969 0.470512
0.820371 0.732097 0.474495
0.831724 0.737621 0.472358
0.0301976 0.827909 0.643473
0.0431678 0.818357 0.595621
0.0598001 0.79881 0.533532
0.161486 0.831083 0.44271
0.503578 0.836835 0.448829
0.659648 0.840543 0.491264
0.749569 0.858808 0.489525
0.805234 0.835477 0.402869
0.81387 0.810117 0.476905
0.0160983 0.198657 0.437446
0.0271611 0.197192 0.434653
0.0576181 0.19089 0.426001
0.148455 0.187762 0.436561
0.364767 0.20499 0.408057
0.595666 0.190829 0.376211
0.719142 0.197604 0.380285
0.779706 0.205219 0.393622
0.820966 0.227726 0.42768
0.0163577 0.218936 0.440909
0.0286259 0.220554 0.442176
0.0629282 0.215793 0.434302
0.173434 0.21413 0.447242
0.408011 0.23212 0.41326
0.638392 0.223026 0.387396
0.744915 0.235416 0.403891
0.795193 0.247761 0.427665
0.820523 0.278676 0.476188
0.0168002 0.250721 0.44506
0.0305028 0.26096 0.459953
0.0576028 0.269841 0.470237
0.178164 0.264546 0.480522
0.447608 0.286259 0.444862
0.667155 0.279591 0.428275
0.750988 0.294759 0.460288
0.795804 0.313405 0.490654
0.810193 0.36321 0.553704
0.0174563 0.302144 0.455375
0.0318456 0.325231 0.482551
0.0495155 0.339162 0.505867
0.167025 0.352972 0.537331
0.447135 0.362325 0.505867
0.649805 0.366903 0.508171
0.734142 0.384024 0.536278
0.785657 0.40763 0.570352
0.803723 0.44741 0.615808
0.0187991 0.383062 0.498192
0.0332341 0.4121 0.531533
0.0509499 0.439307 0.568124
0.161883 0.457038 0.60264
0.435096 0.459007 0.610315
0.635081 0.483558 0.603586
0.722316 0.503822 0.625757
0.779858 0.518853 0.646113
0.802167 0.538109 0.659144
0.0207523 0.490898 0.564721
0.0352789 0.52401 0.599252
0.0532235 0.552819 0.633753
0.139193 0.573495 0.666346
0.415534 0.589227 0.682475
0.627497 0.608576 0.674067
0.719005 0.619745 0.681636
0.781415 0.614725 0.676539
0.808164 0.611231 0.667536
0.0247654 0.61706 0.647013
0.0391546 0.638788 0.6645
0.0568704 0.663035 0.686229
0.103182 0.690806 0.711406
0.396048 0.703838 0.709697
0.642176 0.704997 0.681315
0.733745 0.714015 0.691936
0.790784 0.719799 0.689448
0.815366 0.715648 0.674708
0.0285649 0.728405 0.721645
0.0424048 0.748608 0.731273
0.0596628 0.76907 0.739635
0.0905165 0.771954 0.728038
0.401129 0.752987 0.661997
0.649683 0.771878 0.661768
0.745068 0.788235 0.634623
0.796536 0.771084 0.64744
0.811246 0.780377 0.645533
0.0298772 0.836042 0.775464
0.0430762 0.850126 0.777722
0.0597543 0.847456 0.73962
0.0928054 0.831006 0.658808
0.373114 0.846479 0.572091
0.638376 0.84712 0.60647
0.741527 0.86099 0.628443
0.792584 0.8486 0.574243
0.802441 0.832197 0.620279
0.0159915 0.221057 0.491402
0.0271458 0.219928 0.488212
0.0531624 0.214374 0.477806
0.136614 0.209873 0.478004
0.353216 0.229465 0.45948
0.568978 0.219165 0.422629
0.717083 0.222202 0.426474
0.775021 0.23798 0.46247
0.809216 0.24979 0.485664
0.0162966 0.241993 0.495521
0.028748 0.244297 0.496834
0.058732 0.239658 0.486702
0.156359 0.237842 0.491234
0.396246 0.259861 0.467414
0.611765 0.25301 0.440024
0.737453 0.262943 0.467185
0.784298 0.285008 0.509941
0.805493 0.314549 0.550881
0.0170748 0.275242 0.50248
0.0308843 0.285115 0.51751
0.0519112 0.293294 0.526375
0.162356 0.289174 0.52517
0.432319 0.313756 0.503563
0.631342 0.315221 0.503182
0.740734 0.33518 0.544656
0.78262 0.356222 0.581796
0.798749 0.391287 0.625452
0.0178836 0.324804 0.511284
0.0323186 0.347234 0.539284
0.0498817 0.357687 0.560311
0.153597 0.373449 0.593332
0.439445 0.375357 0.579644
0.621836 0.393286 0.580453
0.7337 0.41294 0.619104
0.778195 0.43212 0.642451
0.795804 0.468467 0.684001
0.0191958 0.40528 0.558267
0.0336767 0.433722 0.593408
0.0514229 0.455985 0.626108
0.145617 0.468696 0.658793
0.394553 0.466255 0.683879
0.629984 0.487678 0.678401
0.733349 0.51165 0.696529
0.775921 0.533242 0.709484
0.794263 0.559152 0.733745
0.0211337 0.499702 0.621225
0.0356756 0.531136 0.657786
0.0536202 0.556054 0.690105
0.132937 0.573602 0.720134
0.390204 0.591012 0.748211
0.622263 0.60058 0.745296
0.726207 0.62002 0.743587
0.772793 0.631159 0.747677
0.793576 0.640696 0.751431
0.0249943 0.617014 0.709041
0.0393378 0.639582 0.73135
0.0569924 0.65658 0.750622
0.108019 0.669581 0.769604
0.388418 0.681086 0.780087
0.618372 0.703593 0.776806
0.722805 0.716747 0.777615
0.77348 0.715511 0.771801
0.79498 0.711284 0.763287
0.0285496 0.711772 0.769619
0.0423438 0.726513 0.778805
0.059556 0.742428 0.788525
0.0853132 0.763317 0.801404
0.348928 0.787091 0.808316
0.599298 0.789929 0.782315
0.736278 0.796658 0.770504
0.78085 0.802396 0.77702
0.797467 0.805127 0.771939
0.0296788 0.809766 0.821302
0.0428473 0.825986 0.827039
0.0595865 0.844282 0.829831
0.078233 0.857771 0.823621
0.292363 0.852522 0.764126
0.569284 0.859617 0.706157
0.734173 0.864027 0.742321
0.787655 0.861646 0.716823
0.798413 0.855268 0.73753
0.0159304 0.244831 0.545174
0.0272068 0.244129 0.542
0.0484474 0.238529 0.530175
0.129747 0.231113 0.519707
0.344411 0.252399 0.509422
0.544457 0.248615 0.47985
0.68719 0.252659 0.498161
0.763958 0.275074 0.542718
0.794903 0.297734 0.583688
0.0163272 0.266484 0.550698
0.0289464 0.269062 0.552422
0.0536202 0.265003 0.540887
0.147463 0.260838 0.533913
0.387213 0.286427 0.520363
0.582132 0.287785 0.514778
0.711009 0.302098 0.549477
0.773022 0.330373 0.608606
0.793759 0.357671 0.649821
0.0174258 0.301076 0.56173
0.031342 0.311009 0.577585
0.049836 0.31902 0.585931
0.152163 0.313649 0.573983
0.425376 0.335683 0.569741
0.605188 0.350774 0.587396
0.7234 0.365866 0.625086
0.779492 0.388952 0.68365
0.793576 0.420539 0.715145
0.0183871 0.348989 0.569375
0.0328527 0.369711 0.597147
0.0504005 0.379141 0.619104
0.140337 0.393835 0.65008
0.408072 0.381262 0.66212
0.614389 0.408301 0.663508
0.728405 0.427649 0.69337
0.782071 0.450278 0.741985
0.793912 0.485222 0.757885
0.0196841 0.429603 0.621271
0.0341802 0.457023 0.657694
0.0519722 0.475639 0.686503
0.125307 0.481315 0.711482
0.355093 0.48249 0.754284
0.614389 0.490715 0.768551
0.735348 0.512306 0.774136
0.78233 0.535256 0.793042
0.794003 0.567239 0.797635
0.021622 0.518715 0.684199
0.0361028 0.548501 0.720684
0.0540627 0.569314 0.748257
0.112062 0.581872 0.771695
0.357397 0.596338 0.806897
0.585199 0.597208 0.809979
0.730083 0.609552 0.81706
0.778073 0.627985 0.811399
0.793332 0.648188 0.817624
0.0252842 0.620157 0.763348
0.0396124 0.642542 0.787793
0.0570993 0.654475 0.802472
0.0968185 0.660044 0.814054
0.3635 0.673152 0.829938
0.588449 0.696498 0.839811
0.725155 0.705623 0.839857
0.775418 0.716121 0.834134
0.792966 0.722118 0.835264
0.0286564 0.711467 0.825818
0.042359 0.725109 0.836988
0.0595254 0.734203 0.84419
0.0873732 0.742351 0.852262
0.350027 0.752026 0.858289
0.587167 0.771466 0.860273
0.725002 0.796658 0.856794
0.77702 0.799802 0.858549
0.794278 0.795865 0.851362
0.0295872 0.792172 0.864851
0.0427253 0.804044 0.870237
0.0594339 0.816358 0.873274
0.0780499 0.832059 0.877211
0.265965 0.852323 0.880522
0.523384 0.86688 0.868086
0.71194 0.873167 0.841886
0.784634 0.874708 0.842191
0.797909 0.878706 0.848417
