THRILL.cube
TITLE "Generated by Resolve"
LUT_3D_SIZE 5
0.0184634 0.044358 0.0542611
0.0771801 0.0639811 0.0597391
0.314199 0.0873426 0.0664988
0.607126 0.101839 0.127794
0.835248 0.130556 0.172351
0.0175174 0.145052 0.0511482
0.0932631 0.144976 0.051957
0.406439 0.16817 0.0632639
0.721981 0.201083 0.122454
0.888884 0.251148 0.151293
0.0178225 0.329122 0.0423743
0.123888 0.368963 0.0431373
0.564111 0.336431 0.0280461
0.844984 0.375189 0.0593271
0.910002 0.451713 0.0371252
0.0286259 0.524559 0.0451667
0.21912 0.558022 0.0693828
0.591287 0.642252 0.0404822
0.844144 0.60647 0.0355383
0.89189 0.588098 0.0306249
0.0566567 0.723735 0.0469368
0.262348 0.771374 0.0464942
0.599481 0.818769 0.0444648
0.781979 0.854292 0.0437476
0.845609 0.786084 0.0440833
0.0181735 0.0709392 0.133562
0.0891585 0.075639 0.139681
0.320211 0.076173 0.130617
0.600153 0.100923 0.183215
0.825071 0.13077 0.224887
0.0175479 0.147753 0.14966
0.0918898 0.163607 0.159548
0.424079 0.165057 0.129839
0.712459 0.188602 0.185153
0.878233 0.239628 0.21059
0.0187839 0.333898 0.108354
0.115389 0.390753 0.108248
0.577676 0.357534 0.0710155
0.841459 0.396612 0.0846113
0.904036 0.470375 0.0784772
0.0249485 0.492271 0.163149
0.204242 0.567697 0.140169
0.594141 0.654749 0.0830091
0.83949 0.614389 0.0783856
0.887617 0.596719 0.0687724
0.0317998 0.726162 0.139803
0.242939 0.770718 0.0871443
0.595544 0.824765 0.0816968
0.778531 0.851637 0.0819409
0.842466 0.790814 0.0800031
0.0170901 0.135103 0.289937
0.0694743 0.130694 0.289998
0.399329 0.134417 0.273823
0.682841 0.140093 0.291936
0.839933 0.162753 0.30811
0.0169985 0.18436 0.290028
0.0717174 0.213443 0.329046
0.47631 0.213367 0.312245
0.74931 0.232578 0.341024
0.852674 0.27042 0.363882
0.0187228 0.375616 0.37026
0.0508583 0.434028 0.415335
0.474189 0.446769 0.416312
0.761044 0.477638 0.431266
0.857679 0.4981 0.414893
0.0247807 0.618524 0.46949
0.067216 0.580652 0.404105
0.548074 0.668254 0.362371
0.803525 0.63827 0.320455
0.862364 0.645426 0.29276
0.0305028 0.767834 0.436454
0.0690471 0.777035 0.331029
0.550134 0.824094 0.328649
0.760327 0.853788 0.319249
0.827131 0.796048 0.305959
0.0160983 0.198657 0.437446
0.0576181 0.19089 0.426001
0.364767 0.20499 0.408057
0.719142 0.197604 0.380285
0.820966 0.227726 0.42768
0.0168002 0.250721 0.44506
0.0576028 0.269841 0.470237
0.447608 0.286259 0.444862
0.750988 0.294759 0.460288
0.810193 0.36321 0.553704
0.0187991 0.383062 0.498192
0.0509499 0.439307 0.568124
0.435096 0.459007 0.610315
0.722316 0.503822 0.625757
0.802167 0.538109 0.659144
0.0247654 0.61706 0.647013
0.0568704 0.663035 0.686229
0.396048 0.703838 0.709697
0.733745 0.714015 0.691936
0.815366 0.715648 0.674708
0.0298772 0.836042 0.775464
0.0597543 0.847456 0.73962
0.373114 0.846479 0.572091
0.741527 0.86099 0.628443
0.802441 0.832197 0.620279
0.0159304 0.244831 0.545174
0.0484474 0.238529 0.530175
0.344411 0.252399 0.509422
0.68719 0.252659 0.498161
0.794903 0.297734 0.583688
0.0174258 0.301076 0.56173
0.049836 0.31902 0.585931
0.425376 0.335683 0.569741
0.7234 0.365866 0.625086
0.793576 0.420539 0.715145
0.0196841 0.429603 0.621271
0.0519722 0.475639 0.686503
0.355093 0.48249 0.754284
0.735348 0.512306 0.774136
0.794003 0.567239 0.797635
0.0252842 0.620157 0.763348
0.0570993 0.654475 0.802472
0.3635 0.673152 0.829938
0.725155 0.705623 0.839857
0.792966 0.722118 0.835264
0.0295872 0.792172 0.864851
0.0594339 0.816358 0.873274
0.265965 0.852323 0.880522
0.71194 0.873167 0.841886
0.797909 0.878706 0.848417
