THRILL.cube
TITLE "Generated by Resolve"
LUT_3D_SIZE 33
0.0184634 0.044358 0.0542611
0.0196231 0.0449073 0.0546273
0.0227207 0.0465248 0.0555428
0.0271305 0.048661 0.0564584
0.0338903 0.0510567 0.0572671
0.0420081 0.0536049 0.0580148
0.0513924 0.0564126 0.0586404
0.0626535 0.0601053 0.0592355
0.0771801 0.0639811 0.0597391
0.0944381 0.0681621 0.0597086
0.115465 0.0713512 0.059205
0.140764 0.0738384 0.0587167
0.170916 0.0754711 0.0583047
0.204456 0.0770123 0.0583047
0.240909 0.0789197 0.0594339
0.275639 0.0835431 0.0616464
0.314199 0.0873426 0.0664988
0.355612 0.0894942 0.0736553
0.397299 0.0908522 0.0817273
0.437415 0.0923476 0.0899672
0.475181 0.0939803 0.098024
0.510704 0.0957046 0.105928
0.544244 0.0975052 0.113649
0.576211 0.0996567 0.120912
0.607126 0.101839 0.127794
0.637629 0.104234 0.134508
0.667399 0.106722 0.14107
0.697047 0.10959 0.147356
0.726726 0.112993 0.153048
0.756329 0.116762 0.158373
0.785275 0.120943 0.16347
0.811963 0.125444 0.168109
0.835248 0.130556 0.172351
0.0184787 0.0478218 0.0542763
0.019852 0.0482795 0.0547494
0.0229953 0.0495613 0.0556497
0.0276188 0.0514534 0.0564736
0.0344854 0.0537423 0.0573587
0.042649 0.0561379 0.0581216
0.0521859 0.0587625 0.058732
0.0636912 0.0621195 0.0592355
0.0783703 0.0657359 0.0595407
0.0960403 0.0697185 0.0594644
0.117311 0.073106 0.0589609
0.143145 0.0756695 0.0584573
0.173587 0.0773175 0.0580911
0.20737 0.0788128 0.0582284
0.243946 0.0810254 0.0594644
0.278843 0.0855573 0.0619211
0.317861 0.0892195 0.0670634
0.359442 0.0913405 0.0743572
0.401038 0.092668 0.0824903
0.441352 0.0941787 0.0908217
0.47895 0.0958724 0.098909
0.514504 0.097612 0.106889
0.547951 0.0994125 0.114672
0.579812 0.10161 0.121889
0.610895 0.103822 0.128786
0.641367 0.106264 0.135515
0.671336 0.108812 0.142138
0.70106 0.111757 0.148379
0.730663 0.115236 0.153979
0.760296 0.119066 0.159289
0.788861 0.123293 0.164355
0.81529 0.127871 0.168994
0.838087 0.133104 0.173205
0.0185245 0.057969 0.0543679
0.0201267 0.0580911 0.0550698
0.0233005 0.0585336 0.0559701
0.0282139 0.059556 0.0565499
0.035172 0.0614176 0.0573434
0.0434272 0.0636301 0.0581216
0.0531319 0.065919 0.058732
0.0646677 0.068574 0.059144
0.0795453 0.0714275 0.0590829
0.0977951 0.0747387 0.058854
0.119738 0.0783246 0.0583047
0.146227 0.0811322 0.0577707
0.177066 0.0829786 0.057496
0.211688 0.0845655 0.0578622
0.248249 0.0872053 0.0593576
0.283742 0.0916915 0.0623178
0.323384 0.09514 0.0680247
0.365225 0.0972 0.0756085
0.407416 0.0987106 0.0840009
0.447944 0.100404 0.0924544
0.486046 0.102358 0.100816
0.521706 0.10428 0.10901
0.555383 0.106126 0.116976
0.587839 0.108598 0.124285
0.619257 0.111009 0.131228
0.650248 0.113649 0.13817
0.68072 0.116503 0.144839
0.710719 0.119829 0.150896
0.740658 0.123705 0.15642
0.770077 0.12781 0.161746
0.797909 0.132311 0.166827
0.823423 0.137224 0.171557
0.844923 0.142718 0.175677
0.018555 0.0692607 0.0545968
0.0203861 0.0693065 0.0555734
0.0235294 0.069398 0.0567788
0.0287938 0.0693217 0.0569009
0.0360113 0.0702831 0.0567788
0.0445258 0.0724956 0.057145
0.0543374 0.075227 0.0580911
0.0654917 0.0781872 0.0590524
0.0800488 0.0804303 0.0590677
0.0993515 0.0822461 0.0584268
0.122621 0.0843519 0.0576638
0.150042 0.0867475 0.0572366
0.181903 0.0889906 0.0570993
0.21706 0.0907912 0.0578317
0.253452 0.0936751 0.0597848
0.289601 0.0977035 0.0635996
0.329793 0.100633 0.0701305
0.372198 0.1028 0.0780957
0.415076 0.104921 0.0865034
0.456138 0.107012 0.0949721
0.49427 0.109163 0.103288
0.530083 0.11133 0.111528
0.564431 0.113527 0.119677
0.597574 0.116304 0.127001
0.629847 0.119066 0.134066
0.661204 0.122103 0.140856
0.692027 0.12549 0.147112
0.722438 0.129274 0.15285
0.752316 0.133471 0.158297
0.781399 0.137972 0.163607
0.808621 0.142947 0.168704
0.832761 0.148241 0.173236
0.852903 0.154101 0.176928
0.018555 0.0814069 0.0547189
0.0205997 0.0814527 0.0557565
0.0239567 0.0818952 0.0572213
0.0290074 0.0821546 0.0581064
0.036286 0.0819104 0.0567178
0.0459297 0.0819562 0.0554818
0.0563973 0.0839094 0.0564126
0.0675059 0.0876173 0.0576791
0.0812238 0.0912947 0.0583505
0.100511 0.0931868 0.0579843
0.125795 0.0936599 0.0568704
0.155322 0.0943313 0.0565042
0.188602 0.0954604 0.057023
0.224094 0.0972152 0.0584115
0.260121 0.100084 0.0613107
0.297414 0.10367 0.0662547
0.338933 0.106584 0.0733654
0.382528 0.109178 0.0814069
0.425376 0.111757 0.0897688
0.466529 0.11426 0.0981918
0.504891 0.116869 0.106386
0.541344 0.119478 0.114519
0.576303 0.122194 0.122393
0.610101 0.12546 0.129625
0.642969 0.128695 0.136355
0.674876 0.132403 0.142443
0.706279 0.136416 0.148241
0.736767 0.140612 0.153811
0.765988 0.145052 0.159213
0.794415 0.150088 0.164538
0.820172 0.155383 0.16936
0.842893 0.161089 0.173663
0.860945 0.167452 0.177111
0.0184787 0.0948653 0.0545205
0.020737 0.0950027 0.0555734
0.0239719 0.0968185 0.0569619
0.029099 0.0979629 0.0583658
0.0355077 0.0983139 0.058732
0.0458991 0.096025 0.056199
0.0581216 0.0944228 0.0547646
0.0704051 0.0966964 0.0553597
0.0842603 0.101045 0.0560464
0.102998 0.104845 0.0561837
0.129 0.106661 0.0552682
0.160906 0.106355 0.0544594
0.196201 0.105608 0.0554055
0.233082 0.106432 0.0578775
0.2701 0.1093 0.061677
0.309331 0.112703 0.0676585
0.352102 0.115618 0.0754711
0.395911 0.118349 0.0836194
0.439414 0.121187 0.0920272
0.480537 0.123995 0.100481
0.519188 0.126833 0.108782
0.555978 0.129931 0.11667
0.591562 0.133471 0.123964
0.626047 0.137194 0.130526
0.659388 0.141207 0.136675
0.691691 0.145464 0.142458
0.722988 0.149813 0.148119
0.753201 0.154452 0.153613
0.781537 0.159335 0.158785
0.808057 0.164675 0.163699
0.832151 0.170382 0.168154
0.853208 0.17644 0.172274
0.86865 0.1832 0.175479
0.0182956 0.11017 0.0541085
0.020798 0.110613 0.0548562
0.0239872 0.113634 0.0555581
0.0288243 0.115953 0.0560922
0.0357061 0.116213 0.0570382
0.0448157 0.114565 0.057023
0.0580301 0.110658 0.055375
0.0726024 0.109133 0.0540322
0.0882124 0.111788 0.0532082
0.108003 0.115953 0.0527199
0.134524 0.1196 0.0518959
0.167208 0.121416 0.0507057
0.204623 0.121767 0.0506447
0.244282 0.122667 0.0529946
0.283772 0.124987 0.0578012
0.324575 0.12755 0.0650797
0.368399 0.129763 0.07393
0.413169 0.132113 0.0829328
0.456886 0.134829 0.091783
0.498497 0.137789 0.10045
0.537636 0.140963 0.108629
0.574685 0.144503 0.11606
0.610819 0.148577 0.122835
0.645441 0.152697 0.129061
0.678767 0.157015 0.134936
0.710872 0.161624 0.140566
0.74168 0.166506 0.145953
0.77084 0.171572 0.151049
0.797803 0.176944 0.155825
0.822507 0.182757 0.160327
0.844388 0.188769 0.164446
0.862715 0.195087 0.168231
0.876081 0.202167 0.171221
0.0179599 0.126833 0.0530098
0.020798 0.127672 0.0534676
0.0239719 0.131746 0.0530709
0.0285344 0.135531 0.0523537
0.0356146 0.135683 0.053254
0.0448463 0.134585 0.0552682
0.0572061 0.131716 0.0567178
0.0734417 0.127108 0.0538949
0.0914321 0.125521 0.0513008
0.113329 0.128252 0.0495613
0.142321 0.131899 0.0477302
0.1776 0.135088 0.0452125
0.216236 0.137926 0.0442359
0.257588 0.140703 0.0462806
0.298634 0.143771 0.0509957
0.341192 0.146731 0.0586099
0.386892 0.14902 0.0682994
0.432685 0.151034 0.0782788
0.477195 0.153414 0.0879988
0.518914 0.15613 0.0971237
0.557992 0.159304 0.105303
0.59556 0.163088 0.112535
0.631739 0.1673 0.119051
0.666636 0.171878 0.125017
0.700084 0.176898 0.130465
0.73196 0.1823 0.135592
0.761807 0.187671 0.140505
0.789319 0.193149 0.145113
0.814466 0.198978 0.149493
0.836942 0.205035 0.153582
0.856458 0.211322 0.157366
0.872007 0.217777 0.160845
0.882689 0.224475 0.163455
0.0175174 0.145052 0.0511482
0.0206607 0.146487 0.0512856
0.0238956 0.151553 0.0499428
0.027985 0.156466 0.0479133
0.0350805 0.156817 0.0486
0.0451514 0.15642 0.0512245
0.0579995 0.154498 0.0562448
0.0735332 0.150118 0.0569772
0.0932631 0.144976 0.051957
0.116976 0.143694 0.0480659
0.149889 0.14583 0.0442512
0.189532 0.149111 0.0400244
0.231022 0.152941 0.0388342
0.272816 0.157168 0.0411994
0.315145 0.161257 0.0464332
0.35996 0.165026 0.0540627
0.406439 0.16817 0.0632639
0.453162 0.170901 0.0731975
0.497902 0.173587 0.0829938
0.539605 0.17673 0.0918746
0.579263 0.180636 0.0995499
0.617426 0.185107 0.106188
0.654154 0.190127 0.112108
0.689128 0.195483 0.117525
0.721981 0.201083 0.122454
0.752941 0.206943 0.127123
0.78143 0.212863 0.131426
0.807172 0.219013 0.135348
0.830243 0.225483 0.138979
0.850584 0.232181 0.142367
0.867582 0.238682 0.145708
0.880415 0.24506 0.148882
0.888884 0.251148 0.151293
0.0171206 0.16492 0.0489204
0.0204471 0.167086 0.0487831
0.023743 0.172534 0.046891
0.0273289 0.178393 0.0438239
0.034226 0.180072 0.0437476
0.0449531 0.180484 0.0465858
0.0589303 0.179049 0.0530556
0.0742809 0.17499 0.0603494
0.0944839 0.170504 0.055024
0.119432 0.164858 0.0493629
0.154635 0.163195 0.0433051
0.199466 0.16495 0.0366522
0.244785 0.168673 0.0353246
0.289525 0.173114 0.0387884
0.335821 0.177432 0.0452125
0.383078 0.181399 0.0532998
0.430335 0.185077 0.0623941
0.476707 0.188525 0.0716869
0.520531 0.19234 0.0802625
0.561959 0.196872 0.0877241
0.601602 0.202014 0.0940719
0.639811 0.207538 0.099733
0.676478 0.213443 0.104814
0.710658 0.219547 0.109346
0.742672 0.225818 0.113603
0.772396 0.232349 0.117479
0.799298 0.239292 0.120714
0.823209 0.246586 0.123415
0.844221 0.254246 0.125704
0.862455 0.262013 0.127779
0.87715 0.269581 0.129809
0.887785 0.276661 0.131853
0.894621 0.282673 0.133318
0.0168612 0.186725 0.0466621
0.0202182 0.189273 0.04654
0.0235599 0.194522 0.0446937
0.0270542 0.200916 0.0413672
0.0328527 0.205173 0.0391852
0.0441138 0.206119 0.0421149
0.0590219 0.205646 0.0482185
0.0758526 0.201328 0.059556
0.0957198 0.197894 0.0614786
0.122225 0.192172 0.0515297
0.15729 0.186206 0.0449226
0.20528 0.183703 0.0364233
0.255161 0.185687 0.0334478
0.306722 0.189364 0.0375677
0.358633 0.193378 0.045304
0.408774 0.197269 0.0542763
0.457191 0.201236 0.0634623
0.503288 0.205371 0.0721599
0.546715 0.210239 0.0795758
0.587625 0.215869 0.0856489
0.626688 0.221805 0.0909285
0.664286 0.227939 0.0957961
0.699687 0.234424 0.100069
0.732448 0.241123 0.103746
0.762676 0.248051 0.106996
0.790356 0.255375 0.109728
0.81529 0.263325 0.111711
0.837079 0.271839 0.112963
0.856123 0.280858 0.113603
0.872282 0.290333 0.113695
0.884947 0.29984 0.113512
0.894011 0.308797 0.11313
0.899443 0.315038 0.112902
0.0166476 0.20943 0.0450294
0.0200351 0.212039 0.0451667
0.0234836 0.217258 0.0433967
0.0270695 0.223819 0.0400702
0.0320439 0.230518 0.0358434
0.0432898 0.233127 0.0374762
0.058793 0.233814 0.0429389
0.0775158 0.229099 0.0551156
0.0980545 0.224231 0.0662852
0.126116 0.223148 0.0555581
0.160159 0.214832 0.0489052
0.207614 0.207675 0.0395666
0.26276 0.20528 0.0332494
0.320974 0.20676 0.0356451
0.378225 0.209903 0.0441901
0.432944 0.213779 0.0541848
0.483558 0.218235 0.063508
0.53077 0.223224 0.0717937
0.574365 0.22884 0.0784619
0.615 0.234943 0.0838636
0.653407 0.241108 0.0886549
0.689265 0.247272 0.0929122
0.722911 0.253773 0.0966964
0.753704 0.260746 0.0997482
0.781582 0.268116 0.102129
0.806928 0.276112 0.103822
0.829465 0.284855 0.104677
0.849195 0.294148 0.104829
0.866178 0.304082 0.104158
0.880201 0.314748 0.102663
0.891142 0.326146 0.100282
0.898802 0.336645 0.0974899
0.903075 0.342519 0.0961624
0.016556 0.232563 0.0442359
0.0200656 0.23534 0.0444648
0.0235599 0.240558 0.0426032
0.0271458 0.247181 0.0390478
0.0320897 0.254917 0.033814
0.0432593 0.259709 0.0337224
0.0592355 0.261891 0.0381476
0.0791791 0.257435 0.0501869
0.102068 0.251301 0.0639963
0.131884 0.252644 0.0598917
0.166339 0.247684 0.0514076
0.209476 0.236789 0.0461738
0.268437 0.229068 0.0362249
0.330602 0.226261 0.0331273
0.39266 0.227771 0.040528
0.45214 0.231724 0.0510872
0.506615 0.236469 0.0611734
0.555566 0.242115 0.069276
0.599908 0.248188 0.0755169
0.640574 0.254444 0.0806744
0.677607 0.260655 0.0850385
0.712016 0.266957 0.088777
0.743786 0.273686 0.0919203
0.772519 0.280919 0.0944381
0.798474 0.288701 0.0962081
0.821454 0.297032 0.0971542
0.841749 0.305974 0.0973373
0.85948 0.315541 0.0968185
0.874525 0.325978 0.0953536
0.886763 0.337484 0.0928054
0.896117 0.349981 0.0889754
0.902525 0.360571 0.0852216
0.905852 0.365209 0.0839704
0.0167239 0.255909 0.0437781
0.020264 0.258793 0.0439918
0.0237888 0.263767 0.0421912
0.027451 0.270649 0.0382391
0.0328832 0.278706 0.032929
0.0444953 0.28455 0.0322576
0.0605783 0.288838 0.0345769
0.0813001 0.286137 0.0448157
0.106645 0.279973 0.0584421
0.138735 0.278569 0.0588388
0.177005 0.280903 0.0484779
0.215824 0.270985 0.0519417
0.273014 0.259632 0.042298
0.33904 0.251041 0.0321202
0.404822 0.249439 0.0346075
0.46659 0.251637 0.044358
0.523217 0.25565 0.0552987
0.574868 0.261372 0.0641489
0.621485 0.267643 0.0708324
0.662608 0.273945 0.076051
0.69955 0.280324 0.0803388
0.733135 0.287007 0.0837415
0.762951 0.293996 0.0862745
0.789609 0.301732 0.0879225
0.813184 0.309865 0.0888991
0.833982 0.318425 0.089189
0.852445 0.327718 0.0887465
0.868299 0.337606 0.0874952
0.881529 0.348592 0.0850843
0.892012 0.360708 0.0815137
0.900099 0.373617 0.0768292
0.905516 0.383383 0.0730755
0.908202 0.386877 0.0722057
0.0170443 0.279866 0.0431525
0.0205844 0.282734 0.0434882
0.0241398 0.287297 0.0419928
0.0278782 0.294362 0.0375525
0.0340581 0.302266 0.0324559
0.0464485 0.308019 0.0323186
0.0629282 0.313359 0.0334936
0.0843214 0.315572 0.0387579
0.111101 0.310643 0.0517433
0.143847 0.307118 0.0589914
0.187854 0.312352 0.0426184
0.229435 0.313115 0.044831
0.27837 0.298512 0.0460517
0.346685 0.285161 0.0343023
0.416922 0.277455 0.0296788
0.481163 0.275593 0.0355688
0.538216 0.277562 0.0466468
0.590051 0.282032 0.0561227
0.637217 0.287816 0.0634012
0.679759 0.294087 0.0691081
0.717891 0.300679 0.0736248
0.751385 0.307591 0.0770123
0.780468 0.314977 0.079408
0.805097 0.323018 0.0803998
0.826337 0.331258 0.0807813
0.845182 0.340078 0.0804761
0.861784 0.349722 0.0792248
0.875853 0.360128 0.0769665
0.887343 0.371557 0.073579
0.896254 0.383902 0.0691844
0.903273 0.397314 0.0636606
0.907744 0.40621 0.0597086
0.910018 0.408927 0.0590219
0.0174105 0.304845 0.0422522
0.0209812 0.307256 0.0429389
0.0245365 0.311101 0.0420233
0.028336 0.317922 0.0374762
0.0351415 0.32575 0.032578
0.0481575 0.331456 0.0324712
0.0659342 0.337575 0.033051
0.0886854 0.342046 0.0358434
0.116762 0.340322 0.0458991
0.151431 0.33724 0.0545968
0.19556 0.342382 0.0434424
0.240833 0.345541 0.0372168
0.289937 0.343923 0.0427558
0.353704 0.324315 0.0360266
0.42768 0.312596 0.0307469
0.494896 0.305592 0.0285344
0.552499 0.303227 0.0353704
0.604517 0.305776 0.0445411
0.651377 0.31014 0.0528572
0.693446 0.315343 0.0595712
0.731197 0.321767 0.0644083
0.764202 0.329076 0.0676127
0.792859 0.336492 0.0700084
0.816938 0.344594 0.0709544
0.837537 0.353201 0.0710155
0.854978 0.362219 0.0702831
0.869902 0.372198 0.068452
0.882109 0.382696 0.0656443
0.891752 0.394171 0.0616464
0.899428 0.406958 0.0563211
0.905531 0.420783 0.0496529
0.909026 0.428992 0.044358
0.910887 0.431052 0.0438697
0.0178225 0.329122 0.0423743
0.0214084 0.331823 0.0429999
0.0249638 0.33521 0.0421759
0.028809 0.34139 0.0377813
0.0362249 0.349035 0.0330816
0.050782 0.355138 0.0325322
0.0706188 0.361837 0.0330205
0.0943313 0.367895 0.03505
0.123888 0.368963 0.0431373
0.159716 0.366308 0.0532692
0.204318 0.370581 0.0483253
0.255695 0.377783 0.0354162
0.304021 0.380682 0.0361486
0.362524 0.372595 0.0356603
0.436576 0.353094 0.0333715
0.505074 0.342092 0.028687
0.564111 0.336431 0.0280461
0.617044 0.334112 0.0315404
0.664454 0.335775 0.0385748
0.70634 0.340169 0.0457008
0.74313 0.345708 0.0512398
0.774945 0.351644 0.0556954
0.802152 0.35816 0.0586404
0.825208 0.366308 0.0594797
0.844984 0.375189 0.0593271
0.862074 0.384878 0.0582742
0.876066 0.394919 0.056199
0.886885 0.405463 0.0530251
0.895094 0.416922 0.0488594
0.901625 0.429328 0.0435492
0.906142 0.442954 0.0382239
0.908385 0.450248 0.0363317
0.910002 0.451713 0.0371252
0.0182498 0.352758 0.0443427
0.0218051 0.355154 0.0450752
0.0253452 0.358419 0.0441749
0.0293431 0.365362 0.0384985
0.0389258 0.373434 0.0331273
0.0557717 0.379995 0.0325933
0.0762036 0.387152 0.0331426
0.101122 0.39408 0.0349737
0.13228 0.395941 0.0424811
0.169345 0.393988 0.0534829
0.214054 0.398413 0.0503548
0.267201 0.407614 0.0352178
0.320592 0.413855 0.0351263
0.377035 0.415412 0.0357366
0.440848 0.401312 0.0352636
0.5122 0.383169 0.0314488
0.573449 0.374166 0.0275731
0.627665 0.369223 0.0270085
0.675273 0.367407 0.0289311
0.716716 0.368307 0.0317693
0.753017 0.371572 0.0352941
0.784314 0.377005 0.0394141
0.81062 0.383398 0.0424201
0.832258 0.390448 0.0446174
0.851057 0.398291 0.0457008
0.867018 0.407141 0.0453803
0.879881 0.417044 0.0433356
0.889845 0.427955 0.0397803
0.897169 0.43949 0.0364233
0.902495 0.452033 0.034638
0.905272 0.465064 0.0330968
0.906844 0.470603 0.0330205
0.908446 0.47126 0.0341344
0.0186618 0.37467 0.0485847
0.0222019 0.377279 0.0485237
0.0258183 0.382452 0.0446632
0.0312505 0.391089 0.0366217
0.0437171 0.398779 0.032517
0.061677 0.405097 0.0328374
0.0826429 0.412467 0.0333867
0.108812 0.419318 0.0353552
0.141817 0.421317 0.0428931
0.180117 0.420417 0.0533608
0.225025 0.425483 0.0505531
0.278752 0.435904 0.037644
0.333806 0.443946 0.0353094
0.38912 0.449622 0.0358282
0.449638 0.447501 0.0360266
0.512749 0.431617 0.0345312
0.578668 0.416678 0.030518
0.63537 0.408347 0.0269474
0.683314 0.404196 0.0259861
0.724285 0.402396 0.0266575
0.759731 0.402441 0.0281987
0.790417 0.404608 0.0301823
0.8159 0.409644 0.0316625
0.837049 0.416388 0.0326696
0.855146 0.42356 0.033341
0.87013 0.431312 0.0335851
0.882017 0.439719 0.0333104
0.890959 0.449332 0.032517
0.89752 0.460883 0.0315709
0.901884 0.473548 0.0310979
0.9037 0.485206 0.0306859
0.905074 0.489067 0.0312657
0.906691 0.489189 0.0324254
0.0191806 0.396979 0.0502632
0.0227359 0.401282 0.0478828
0.0269017 0.408728 0.0409247
0.0353552 0.416938 0.0343175
0.049958 0.423499 0.0326848
0.0682841 0.43003 0.0332799
0.0899519 0.437461 0.0338598
0.117784 0.443854 0.0363928
0.15256 0.44564 0.0440833
0.191882 0.445686 0.0530861
0.236851 0.451316 0.0512093
0.28986 0.462547 0.0407263
0.346929 0.472755 0.0356603
0.402121 0.480354 0.0360571
0.457359 0.485725 0.0364385
0.515587 0.480461 0.0362097
0.576761 0.464775 0.0341955
0.637644 0.451392 0.0303655
0.688304 0.444129 0.027039
0.729656 0.440482 0.0257115
0.764721 0.438727 0.0258335
0.794614 0.43856 0.0265202
0.819089 0.440146 0.0272526
0.839506 0.443732 0.027924
0.856748 0.449256 0.0284733
0.870985 0.456214 0.0289006
0.882109 0.463874 0.0292363
0.890471 0.472251 0.0294347
0.896681 0.481865 0.0294347
0.900557 0.493095 0.0292973
0.901869 0.503487 0.0293736
0.903197 0.506004 0.0301976
0.904875 0.505669 0.0312963
0.0198825 0.422263 0.0474098
0.0237736 0.428046 0.0429541
0.0300603 0.435691 0.0363165
0.0415808 0.442115 0.0333715
0.0572366 0.447944 0.0334173
0.0756542 0.454643 0.0340124
0.0984207 0.46215 0.0348669
0.128283 0.467597 0.0387274
0.164477 0.469169 0.0466163
0.204593 0.470253 0.0540932
0.249119 0.476448 0.0527962
0.301472 0.488441 0.0425116
0.359136 0.500343 0.0361791
0.414328 0.5093 0.0365911
0.466514 0.518135 0.0369573
0.519646 0.522148 0.0371252
0.575708 0.513878 0.0366217
0.634394 0.499138 0.0344396
0.687663 0.487861 0.0311131
0.731533 0.481209 0.0283055
0.767208 0.477623 0.0266728
0.796628 0.475792 0.0259861
0.820645 0.474754 0.0260624
0.84033 0.475059 0.0264744
0.856977 0.477104 0.0269474
0.870665 0.481407 0.0273747
0.881254 0.48777 0.0277104
0.889174 0.495079 0.0279393
0.895079 0.502846 0.0280766
0.89865 0.511986 0.0281529
0.899855 0.520226 0.028687
0.901213 0.522087 0.0295567
0.902953 0.521401 0.0305333
0.0208743 0.449516 0.0424506
0.0257115 0.455589 0.037583
0.0347753 0.461921 0.0341802
0.0480354 0.467414 0.0339361
0.0640116 0.473442 0.0345312
0.0831464 0.480476 0.0353399
0.107744 0.487068 0.0376745
0.139635 0.490867 0.0433814
0.177172 0.492363 0.0509957
0.217868 0.49427 0.0567025
0.262562 0.501259 0.0544747
0.313802 0.513512 0.0433967
0.370504 0.526864 0.0372015
0.426444 0.537621 0.0374304
0.476371 0.54696 0.0377508
0.525475 0.556176 0.0378424
0.577493 0.557366 0.0378729
0.630549 0.547112 0.0373083
0.683085 0.533989 0.0355077
0.729244 0.524086 0.0327459
0.766476 0.517708 0.0301213
0.796155 0.513603 0.0281376
0.820066 0.510994 0.0270085
0.839704 0.508873 0.0265202
0.856168 0.507836 0.0264897
0.869505 0.508537 0.0267185
0.87982 0.511849 0.026978
0.887419 0.517266 0.0272068
0.893034 0.52401 0.0273747
0.896315 0.531334 0.0275883
0.897566 0.536934 0.028397
0.899123 0.537362 0.0292363
0.900816 0.536431 0.0299992
0.0221561 0.476753 0.0394293
0.0283513 0.482704 0.0351873
0.0395514 0.488121 0.0346685
0.0536202 0.493751 0.0354314
0.070222 0.499962 0.0364538
0.090898 0.506172 0.0385901
0.117723 0.510704 0.0432441
0.15169 0.513176 0.0500649
0.190433 0.514961 0.0566873
0.231891 0.518059 0.0603647
0.277165 0.525948 0.0562448
0.327092 0.538094 0.0449531
0.382513 0.552422 0.0388647
0.437964 0.564553 0.0384222
0.486763 0.573739 0.0386969
0.533165 0.584207 0.0387274
0.581247 0.592782 0.0387274
0.629358 0.590677 0.0386969
0.677363 0.580011 0.0382391
0.723369 0.568399 0.03682
0.76231 0.558328 0.0345617
0.79295 0.551186 0.032166
0.817395 0.546838 0.0301061
0.837232 0.543465 0.0285954
0.853727 0.540688 0.0276951
0.86714 0.538384 0.0272526
0.877485 0.537743 0.0270695
0.885145 0.539773 0.0271153
0.890547 0.544961 0.0272526
0.893584 0.550973 0.0275578
0.894896 0.554513 0.0284276
0.896681 0.553536 0.0291905
0.898314 0.5523 0.0297551
0.0242771 0.502403 0.0402991
0.032105 0.507897 0.0373236
0.0445106 0.512947 0.0380407
0.0592355 0.518914 0.0390173
0.0770581 0.524742 0.0408179
0.0996872 0.529259 0.0449683
0.128878 0.532143 0.0512245
0.164614 0.534478 0.0577401
0.204425 0.53695 0.0629435
0.246876 0.541222 0.0645151
0.292271 0.549798 0.0585641
0.341527 0.56199 0.0474403
0.394949 0.576516 0.04065
0.448585 0.589731 0.0394446
0.498039 0.59971 0.0396887
0.541283 0.608713 0.039704
0.586191 0.62034 0.0396124
0.630335 0.626459 0.0394446
0.672923 0.622278 0.0394293
0.715557 0.611948 0.0391546
0.754635 0.600076 0.0380255
0.787457 0.589792 0.0364538
0.812833 0.583001 0.0346532
0.832776 0.578134 0.0327001
0.849531 0.573632 0.03093
0.863279 0.56939 0.0293889
0.874067 0.565698 0.028275
0.882063 0.563973 0.0277867
0.887572 0.566049 0.0276951
0.89044 0.570642 0.0280308
0.891768 0.573037 0.0288701
0.893721 0.571328 0.0295109
0.895293 0.569955 0.0299382
0.0286259 0.524559 0.0451667
0.038117 0.529137 0.0442664
0.0511025 0.53434 0.0453193
0.0664988 0.540627 0.0462959
0.0853742 0.545892 0.0486915
0.109789 0.549065 0.0539864
0.141009 0.551614 0.0602579
0.178088 0.554604 0.0655985
0.21912 0.558022 0.0693828
0.262089 0.563424 0.0690318
0.307637 0.572473 0.0613718
0.356085 0.584817 0.0496834
0.406973 0.599054 0.0419318
0.458854 0.613016 0.0404517
0.508034 0.623972 0.0406653
0.550835 0.631998 0.04065
0.591287 0.642252 0.0404822
0.632441 0.653925 0.0403296
0.671092 0.65832 0.0401617
0.708049 0.653223 0.0400244
0.745235 0.642145 0.0397955
0.779461 0.62977 0.0394751
0.806531 0.619867 0.0386969
0.827253 0.612467 0.0373388
0.844144 0.60647 0.0355383
0.858137 0.600946 0.0332647
0.869337 0.59559 0.0311742
0.877867 0.5906 0.0297856
0.88394 0.58822 0.0289921
0.886946 0.590082 0.0290532
0.88838 0.591409 0.0298009
0.89041 0.589487 0.0303197
0.89189 0.588098 0.0306249
0.0353246 0.542916 0.053727
0.0460212 0.547021 0.0543526
0.0594186 0.552422 0.0554665
0.0751507 0.558801 0.0562142
0.0948348 0.563775 0.0586557
0.120668 0.566857 0.063798
0.153506 0.569986 0.0693065
0.19202 0.573785 0.0735332
0.233783 0.578119 0.0760052
0.276951 0.584131 0.0739605
0.322255 0.593561 0.0642557
0.36968 0.606027 0.0508125
0.418296 0.619852 0.042649
0.468086 0.634394 0.041413
0.51632 0.646204 0.0415808
0.561898 0.655528 0.0415198
0.597635 0.662333 0.0412909
0.634821 0.674388 0.0410925
0.671397 0.685496 0.0409857
0.704616 0.688685 0.0408942
0.736004 0.682994 0.0407111
0.76875 0.671122 0.0402991
0.798291 0.658366 0.0403754
0.820966 0.647684 0.0405737
0.838209 0.639261 0.0399786
0.852125 0.632288 0.0382696
0.863386 0.625849 0.035996
0.872389 0.619348 0.0336614
0.879072 0.613855 0.0315862
0.88275 0.6112 0.030808
0.884672 0.609995 0.0312963
0.886824 0.607645 0.0316472
0.888197 0.606439 0.0318303
0.0431373 0.559152 0.0642405
